X: 1
T: String Quartet in B\b Major opus 50 no 1 mvt 1
C: Franz Joseph Haydn
%%abc-version 2.0
%%abcx-abcm2ps-target-version 5.9.1 (29 Sep 2008)
%%abc-creator hum2abc beta
%%abcx-conversion-date 2021/02/14 14:38:24
%%abc-copyright Copyright (c) 1994, 2000 Center for Computer Assisted Research in the Humanities
%%abc-edited-by Frances Bennion
%%abcx-initial-encoding-date 1997/04/15
%%gracespace 0 6 6
%%humdrum-veritas 2142040421
%%humdrum-veritas-data 3055479952
%%linebreak <none>
%%barnumbers 0
L: 1/8
M: 4/4
N: Derived from op50n1-01.krn
Q: "Allegro"
%%staves [1 2 3 4]
V: 1
V: 2
V: 3 clef=alto
V: 4 clef=bass
K: Bb
[V:1]z8 [I:setbarnb2] |
[V:2]z8 |
[V:3]z8 |
[V:4]B,,2 B,,2 B,,2 B,,2 |
[V:1]z8 |
[V:2]z8 |
[V:3]z8 |
[V:4]B,,2 B,,2 B,,2 B,,2 |
[V:1](3:2:2e4- e/f/g/f e|
[V:2]A8 |
[V:3](3:2:2C4- C/D/E/D C|
[V:4]B,,2 B,,2 B,,2 B,,2 |
[V:1]d2 z6 |
[V:2]B2 z6 |
[V:3]B,2 z6 |
[V:4]B,,2 B,,2 B,,2 B,,2 |
[V:1](3:2:2g4- g/a/b/a g|
[V:2](3:2:2e4- e/f/g/f e|
[V:3]A8 |
[V:4]B,,2 B,,2 B,,2 B,,2 |
[V:1]f2 z4 (3bc'd' |
[V:2]d2 z2 z2 (3DEF |
[V:3]B2 z6 |
[V:4]B,,2 z6 |
[V:1](3c'ba b2 z2 (3d'e'f' |
[V:2](3EDC D2 z4 |
[V:3]z8 |
[V:4]z6 (3B,CD |
[V:1](3e'd'c' d'2 z2 (3d'e'f' |
[V:2]z8 |
[V:3]z8 |
[V:4](3CB,A, B,2 z4 |
[V:1](3e'd'c' (3bag f2 ed/e/ |
[V:2]A8 |
[V:3]C6 A2 |
[V:4]F,6 ^F,2 |
[V:1]e4 d2 (3=Bce |
[V:2]c4 B2 z2 |
[V:3]A4 B2 z2 |
[V:4]G,6 z2 |
[V:1](3gfe (3dcB (3AGF (3EDC |
[V:2]C2 z2 (3CDE (3FGA |
[V:3]G2 z2 E2 z2 |
[V:4]E,2 z2 F,2 z2 |
[V:1]B,2 z6 |
[V:2]B2 z6 |
[V:3]D2 z6 |
[V:4]B,,2 B,,2 B,,2 B,,2 |
[V:1]z8 |
[V:2]z8 |
[V:3]z8 |
[V:4]B,,2 B,,2 B,,2 B,,2 |
[V:1](3:2:2e4- e/f/g/f e|
[V:2]c4 A4 |
[V:3]_G4 F4 |
[V:4]B,,2 B,,2 B,,2 B,,2 |
[V:1]d2 z6 |
[V:2]B2 z6 |
[V:3]F2 z6 |
[V:4]B,,2 B,,2 B,,2 B,,2 |
[V:1]^f2 g3 a/b/ ag |
[V:2]d2 e3 f/g/ fe |
[V:3]B,8- |
[V:4]B,,2 B,,2 B,,2 B,,2 |
[V:1]f2 z6 |
[V:2]d2 B2 B2 B2 |
[V:3]B,2 z6 |
[V:4]B,,2 z6 |
[V:1]z8 |
[V:2]B2 B2 B2 B2 |
[V:3](3:2:2F4- F/G/_A/G F|
[V:4](3:2:2D4- D/E/F/E D|
[V:1]z8 |
[V:2]B2 B2 B2 B2 |
[V:3]G2 z6 |
[V:4]E2 z6 |
[V:1](3:2:2c4- c/d/e/d c|
[V:2]B2 B2 A2 A2 |
[V:3]E8 |
[V:4]F,8 |
[V:1]B2 b2 b2 b2 |
[V:2]B2 z6 |
[V:3]D2 z6 |
[V:4]B,,2 z6 |
[V:1]b2 b2 b2 b2 |
[V:2]z8 |
[V:3](3:2:2F4- F/G/_A/G F|
[V:4](3:2:2D4- D/E/F/E D|
[V:1]b2 b2 b2 b2 |
[V:2]z8 |
[V:3]G2 z6 |
[V:4]E2 z6 |
[V:1]b2 b2 a2 a2 |
[V:2](3:2:2c4- c/d/e/d c|
[V:3]E8 |
[V:4]F,8 |
[V:1]b2 z2 cd/e/ dc |
[V:2]B2 z2 A4 |
[V:3]D2 z2 E4 |
[V:4]B,,2 z2 F,4 |
[V:1]B2 z2 [a2c2F2] z2 |
[V:2]B2 z2 [F2e2] z2 |
[V:3]D2 z2 cd/e/ dc |
[V:4]B,,2 z2 F,,2 z2 |
[V:1][b2B2D2] z6 |
[V:2][F2d2] z6 |
[V:3]B2 z6 |
[V:4]B,,2 z6 |
[V:1]d6 ec |
[V:2]B4 A4 |
[V:3]^F8 |
[V:4]z8 |
[V:1]c4 =B2 c2 |
[V:2]_A6 G2 |
[V:3]F6 =E2 |
[V:4]z8 |
[V:1]z2 B4 A2 |
[V:2]F4 =E4 |
[V:3]D4 C4 |
[V:4]z8 |
[V:1](3zGA (3BAG z=E FA |
[V:2]D4 C4 |
[V:3]B,6 A,2 |
[V:4]z8 |
[V:1]c=B _B4 AG/A/ |
[V:2]z2 G4 F2 |
[V:3]G,2 C4 =B,2 |
[V:4]z2 =E,2 F,2 =B,,2 |
[V:1]G2 z6 |
[V:2]=E2 c2 c2 c2 |
[V:3]C2 z6 |
[V:4]C,2 z6 |
[V:1]z8 |
[V:2]c2 c2 c2 c2 |
[V:3]z8 |
[V:4]z8 |
[V:1]z8 |
[V:2]c2 c2 c2 c2 |
[V:3]z4 (3Bcd (3cBA |
[V:4](3B,CD (3CB,A, (3G,A,B, (3A,G,F, |
[V:1]z8 |
[V:2]c2 c2 c2 c2 |
[V:3](3GAB (3AGF (3=EFE (3GFE |
[V:4](3=E,F,G, (3F,E,D, (3C,D,C, (3B,,A,,G,, |
[V:1](3abc' (3bag (3fac' (3f'c'a |
[V:2]c2 c2 c2 c2 |
[V:3]F2 F2 A2 F2 |
[V:4]F,,2 z6 |
[V:1]b2 z2 (3Bcd (3cBA |
[V:2](3Bcd (3cBA (3GAB (3AGF |
[V:3]c2 c2 c2 c2 |
[V:4]z8 |
[V:1](3GAB (3AGF (3=EFG (3FED |
[V:2](3=EFG (3FED (3CDE (3DCB, |
[V:3]c2 c2 c2 c2 |
[V:4]z8 |
[V:1]C2 z6 |
[V:2]A,2 z6 |
[V:3](3ABc (3BAG (3FGA (3GF=E |
[V:4](3F,G,A, (3G,F,=E, (3D,E,F, (3E,D,C, |
[V:1](3d=ef (3edc (3Bcd (3cBA |
[V:2]z2 B,2 D2 ^F2 |
[V:3]D2 z6 |
[V:4]B,,2 z6 |
[V:1]G2 z6 |
[V:2]G2 z6 |
[V:3](3Bcd (3cBA (3GAB (3AGF |
[V:4](3G,A,B, (3A,G,F, (3=E,F,G, (3F,E,D, |
[V:1](3bc'd' (3c'ba (3gab (3agf |
[V:2](3gab (3agf (3=efg (3fed |
[V:3]=E2 z6 |
[V:4]C,2 z6 |
[V:1](3=efg (3fed (3cdc (3BAG |
[V:2](3cd=e (3dcB (3ABA (3GF=E |
[V:3]G,4 A,2 B,2 |
[V:4]C,8 |
[V:1](3Ac'c' (3c'af (3=ecc' (3c'af |
[V:2]F4 G>=E F2 |
[V:3]A,2 C2 C2 C2 |
[V:4]F,2 A,2 B,2 A,2 |
[V:1](3=ecc' (3c'af (3ecc' (3c'af |
[V:2]G>=E F2 G>E (3FAc |
[V:3]C2 C2 C2 C2 |
[V:4]B,2 A,2 B,2 A,2 |
[V:1]d2 d'2 z2 g2 |
[V:2]d2 b2 z2 f2- |
[V:3]F,2 z2 z2 =B,2 |
[V:4]B,2 z2 z2 =B,2 |
[V:1]a2 b4 a2 |
[V:2]f2 =e4 f2 |
[V:3]C2 G4 F2 |
[V:4]C2 ^C4 D2 |
[V:1]g3 a/b/ f2 =e2 |
[V:2]d3 c/B/ A2 G2 |
[V:3]z2 B2 c2 B2 |
[V:4]B,4 C4 |
[V:1]f2 z6 |
[V:2](3Aff (3f=ed (3cdd (3dcB |
[V:3](3Acc (3cBA (3GAA (3AGF |
[V:4](3FAA (3AGF (3=EFF (3FED |
[V:1]z8 |
[V:2](3ABB (3BAG (3F=EF (3GFE |
[V:3](3=EFF (3FED C2 C2 |
[V:4](3CDD (3DCB, (3A,G,A, (3B,A,G, |
[V:1]z4 (3f=ef (3gfe |
[V:2](3F=EF (3GFE F2 (3EFG |
[V:3]C2 C2 C2 C2 |
[V:4](3A,G,A, (3B,A,G, (3A,G,A, (3B,A,G, |
[V:1](3f=ef (3gfe (3fgf (3_ede |
[V:2]F2 (3=EFG F2 F2 |
[V:3]C2 C2 C2 C2 |
[V:4](3A,G,A, (3B,A,G, A,2 A,2 |
[V:1](3de=e (3f^fg (3abg (3abg |
[V:2]F2 z6 |
[V:3]D2 z6 |
[V:4]B,2 z6 |
[V:1]f4 g4 |
[V:2]A2 f4 =e2 |
[V:3]C6 B,2 |
[V:4]C2 C2 C,2 C,2 |
[V:1]f8- |
[V:2]f2 z2 (3BAB (3dcB |
[V:3]A,4 D4 |
[V:4]F,2 F,2 F,2 F,2 |
[V:1]f8- |
[V:2]A2 z2 (3G^FG (3BAG |
[V:3]C2 z2 (3B,A,B, (3DCB, |
[V:4]F,2 F,2 F,2 F,2 |
[V:1]f3 g/a/ (3bab (3d'c'b |
[V:2]A3 B/c/ d2 =e2 |
[V:3]A,2 F2 D2 B,2 |
[V:4]F,2 F,2 F,2 F,2 |
[V:1](3ac'b (3agf (3=edc (3BAG |
[V:2]f2 z2 z2 [B2=e2] |
[V:3]C2 z2 z2 G2 |
[V:4]F,2 z2 z2 C,2 |
[V:1]F2 [A2f2] z4 |
[V:2][f2A2] [F2A,2] z4 |
[V:3]F2 F,2 z4 |
[V:4]F,,2 F,2 z4 |
[V:1]z8 |
[V:2]z8 |
[V:3]z8 |
[V:4]D,,2 D,,2 D,,2 D,,2 |
[V:1]z8 |
[V:2]z8 |
[V:3]z8 |
[V:4]D,,2 D,,2 D,,2 D,,2 |
[V:1][e8^F8] |
[V:2](3:2:2A4- A/B/c/B A|
[V:3](3:2:2C4- C/D/E/D C|
[V:4]D,,2 D,,2 D,,2 D,,2 |
[V:1][d2G2] z6 |
[V:2]B2 z6 |
[V:3]B,2 z6 |
[V:4]D,,2 D,,2 D,,2 D,,2 |
[V:1][_d8=E8] |
[V:2](3:2:2G4- G/A/B/A G|
[V:3]B,8 |
[V:4]D,,2 D,,2 D,,2 D,,2 |
[V:1][D6d6] c2 |
[V:2]^F8 |
[V:3]A,2 D2 D2 D2 |
[V:4]D,,2 z6 |
[V:1]=B8 |
[V:2](3:2:2F4- F/G/_A/G F|
[V:3](3:2:2D4- D/E/F/E D|
[V:4]G,,8- |
[V:1]c4 B4 |
[V:2]E8 |
[V:3]C8 |
[V:4]G,,4 _G,,4 |
[V:1]A8 |
[V:2](3:2:2E4- E/F/G/F E|
[V:3](3:2:2C4- C/_D/E/D C|
[V:4]F,,8- |
[V:1]B4 _A4 |
[V:2]_D8- |
[V:3]B,8- |
[V:4]F,,4 _F,,4 |
[V:1]G8 |
[V:2](3:2:2D4- D/E/F/E D|
[V:3](3:2:2B,4- B,/C/_D/C B,|
[V:4]E,,8 |
[V:1](3:2:2_A4- A/B/c/B A|
[V:2]C2 c2 c2 c2 |
[V:3]_A,2 E2 E2 E2 |
[V:4]_A,,2 z6 |
[V:1]G2 z6 |
[V:2]B2 B2 B2 B2 |
[V:3]E2 E2 E2 E2 |
[V:4](3:2:2_D,4- D,/E,/F,/E, D,|
[V:1](3:2:2_a4- a/b/c'/b a|
[V:2]c2 c2 c2 c2 |
[V:3]E2 E2 E2 E2 |
[V:4]C,2 z6 |
[V:1]g2 z6 |
[V:2]B2 B2 B2 B2 |
[V:3]E2 E2 E2 E2 |
[V:4](3:2:2_D,,4- D,,/E,,/F,,/E,, D,,|
[V:1](3:2:2_A4- A/B/c/B A|
[V:2]c2 c2 c2 c2 |
[V:3]E2 E2 E2 E2 |
[V:4]C,,2 z6 |
[V:1](3:2:2G4- G/_A/B/A G|
[V:2]_d2 d2 d2 d2 |
[V:3]=E2 E2 E2 E2 |
[V:4](3:2:2B,4- B,/C/_D/C B,|
[V:1]F2 z6 |
[V:2]c2 F2 F2 F2 |
[V:3]F2 _A,2 A,2 A,2 |
[V:4]_A,2 z6 |
[V:1]z8 |
[V:2]F2 F2 F2 F2 |
[V:3]_A,2 A,2 A,2 A,2 |
[V:4]z2 C,2 _A,,2 F,,2 |
[V:1](3:2:2_d4- d/e/f/e d|
[V:2]F2 F2 F2 F2 |
[V:3]_A,2 A,2 A,2 A,2 |
[V:4]_D,,2 z6 |
[V:1]c2 z6 |
[V:2]E2 E2 E2 E2 |
[V:3]_A,2 A,2 A,2 A,2 |
[V:4](3:2:2_G,,4- G,,/_A,,/B,,/A,, G,,|
[V:1](3:2:2_d'4- d'/e'/f'/e' d'|
[V:2]F2 F2 F2 F2 |
[V:3]_A,2 A,2 A,2 A,2 |
[V:4]F,,2 z6 |
[V:1]c'2 z6 |
[V:2]E2 E2 E2 E2 |
[V:3]_A,2 A,2 A,2 A,2 |
[V:4](3:2:2_G,4- G,/_A,/B,/A, G,|
[V:1](3:2:2_d4- d/e/f/e d|
[V:2]F2 _A2 A2 A2 |
[V:3]_A,2 F2 F2 F2 |
[V:4]F,2 z6 |
[V:1](3:2:2c4- c/_d/e/d c|
[V:2]_A2 A2 A2 A2 |
[V:3]E2 E2 E2 E2 |
[V:4]z8 |
[V:1](3B4 >>_A4 B (3cBA |
[V:2]_A2 A2 A2 A2 |
[V:3]D2 D2 D2 D2 |
[V:4]z8 |
[V:1](3Gb_a (3gfe (3dcB (3_AGF |
[V:2]G2 z2 z2 (3FED |
[V:3]E2 z2 z2 D2 |
[V:4]E,2 z2 z2 B,,2 |
[V:1]E2 z6 |
[V:2](3EB_A (3GFE (3DCB, (3_A,G,A, |
[V:3](3EGF (3EDC (3B,_A,G, (3F,E,D, |
[V:4]E,2 z2 z2 B,,2 |
[V:1](3[EG,]b_a (3gfe (3dcB (3_AGF |
[V:2]G,2 z2 z2 (3DEF |
[V:3](3E,E,F, (3G,_A,B, (3CDE (3FED |
[V:4]E,2 z2 z2 B,,2 |
[V:1]E2 z6 |
[V:2]G2 e2 e2 e2 |
[V:3]E2 G2 G2 G2 |
[V:4](3E,,G,,_A,, (3B,,C,D, (3E,F,G, (3F,E,D, |
[V:1]z2 g2 g2 g2 |
[V:2]e2 e2 e2 e2 |
[V:3]G2 z6 |
[V:4](3C,E,F, (3G,A,=B, (3CDE (3DC_B, |
[V:1]^f2 gf/g/ a2 c2 |
[V:2]e2 d2 c2 A2 |
[V:3]z8 |
[V:4](3A,B,C (3B,A,G, (3^F,G,A, (3D,=E,F, |
[V:1]B2 g2 g2 g2 |
[V:2]B2 z6 |
[V:3]z2 B2 B2 B2 |
[V:4](3G,,B,,C, (3D,=E,^F, (3G,DC (3B,A,G, |
[V:1]g8- |
[V:2](3z=Bc (3eBc (3eBc (3eBc |
[V:3]c8 |
[V:4]E8 |
[V:1](3g^fg (3bfg (3bfg (3bag |
[V:2]G8 |
[V:3]^c8 |
[V:4]E,8 |
[V:1](3^fdd' (3d'bg (3fdd' (3d'bg |
[V:2]^F2 B2 A2 B2 |
[V:3]d2 (3GBd D2 (3GBd |
[V:4]D,2 z6 |
[V:1](3^fdd' (3d'bg (3fdd' (3d'bg |
[V:2]A2 B2 A2 G2- |
[V:3]D2 (3GBd D2 B,2 |
[V:4]D,2 z2 z2 B,2- |
[V:1](3ecc' (3c'af (3dBb (3bge |
[V:2]G2 F4 E2- |
[V:3]C4 B,4 |
[V:4]B,2 A,4 G,2- |
[V:1](3cAa (3a^fc (3BGd (3dBG |
[V:2]E2 D4 G2 |
[V:3]A,4 B,2 D2 |
[V:4]G,2 ^F,2 G,2 B,,2 |
[V:1](3E_Ac (3ecA (3F=Bd (3fdB |
[V:2]_A4 =B4 |
[V:3]E4 F4 |
[V:4]C,4 D,4 |
[V:1](3Gce (3gec (3Gga (3bag |
[V:2]c4 ^c4 |
[V:3]G4 B2 G2 |
[V:4]E,4 E,,4 |
[V:1](3d'bg (3dBG A4 |
[V:2]d2 (3B,DG ^F4 |
[V:3]D2 D2 D2 D2 |
[V:4]D,,2 D,2 D,2 D,2 |
[V:1]G2 z6 |
[V:2]G2 z6 |
[V:3]G,2 G2 G2 G2 |
[V:4]G,,2 z6 |
[V:1]z8 |
[V:2]z8 |
[V:3]G2 G2 G2 G2 |
[V:4]z8 |
[V:1]z8 |
[V:2](3:2:2_A4- A/B/c/B A|
[V:3]G2 G2 F2 F2 |
[V:4]C4 D4 |
[V:1](3:2:2d4- d/e/f/e d|
[V:2]G2 G2 G2 G2 |
[V:3]F2 F2 F2 F2 |
[V:4](3:2:2=B,4- B,/C/D/C B,|
[V:1](3:2:2e4- e/de d|
[V:2]G2 G2 _G2 G2 |
[V:3]E2 E2 C2 C2 |
[V:4]C4 B,4 |
[V:1](3:2:2c4- c/d/e/d c|
[V:2]F2 F2 F2 F2 |
[V:3]C2 C2 C2 C2 |
[V:4](3:2:2A,4- A,/B,/C/B, A,|
[V:1]d2 z6 |
[V:2]F2 z6 |
[V:3]B,2 z6 |
[V:4]B,2 B,,2 B,,2 B,,2 |
[V:1](3:2:2g4- g/a/b/a g|
[V:2](3:2:2e4- e/f/g/f e|
[V:3]B8 |
[V:4]B,,2 B,,2 B,,2 B,,2 |
[V:1]f2 z4 (3bc'd' |
[V:2]d2 z2 z2 (3DEF |
[V:3]B,2 z6 |
[V:4]B,,2 z6 |
[V:1](3c'ba b2 z2 (3d'e'f' |
[V:2](3EDC D2 z4 |
[V:3]z8 |
[V:4]z6 (3B,CD |
[V:1](3e'd'c' d'2 z2 (3d'e'f' |
[V:2]z8 |
[V:3]z8 |
[V:4](3CB,A, B,2 z4 |
[V:1](3e'd'c' (3bag f2 ed/e/ |
[V:2]A8 |
[V:3]C6 A2 |
[V:4]F,6 ^F,2 |
[V:1]e4 d2 (3=Bce |
[V:2]c4 B2 z2 |
[V:3]A4 B2 z2 |
[V:4]G,6 z2 |
[V:1](3gfe (3dc=B (3cdc (3_BAG |
[V:2]G8 |
[V:3]C8- |
[V:4]E,6 =E,2 |
[V:1](3ABc (3BAG (3FGF (3EDC |
[V:2]C2 z6 |
[V:3]C2 z6 |
[V:4]F,4 z4 |
[V:1]B,2 z6 |
[V:2]z8 |
[V:3](3DEF (3EDC (3B,CD (3CB,A, |
[V:4](3B,CD (3CB,A, (3G,A,B, (3A,G,F, |
[V:1](3gab (3agf (3efg (3fed |
[V:2]z2 E2 G2 =B2 |
[V:3]G,2 z6 |
[V:4]E,2 z6 |
[V:1]c2 z6 |
[V:2]c2 z6 |
[V:3](3EFG (3FED (3CDE (3DCB, |
[V:4](3CDE (3DCB, (3A,B,C (3B,A,G, |
[V:1](3c'd'e' (3d'c'b (3abc' (3bag |
[V:2](3ABc (3BAG (3FGA (3GF=E |
[V:3]A,6 B,2 |
[V:4]F,6 G,2 |
[V:1](3fgf (3edc (3BAG (3FGE |
[V:2]F8- |
[V:3]C8 |
[V:4]A,8 |
[V:1](3DFB (3DF=B (3cGE (3DBd |
[V:2]Fz =Bz cz dz |
[V:3]Dz _Az Gz Gz |
[V:4]B,z Dz Ez =B,z |
[V:1](3ecG (3=ecG (3Fcf (3Eca |
[V:2]ez =ez fz az |
[V:3]Gz Gz Fz cz |
[V:4]Cz B,z A,z Ez |
[V:1](3DBb (3gec (3fdB (3ecA |
[V:2]bz gz fz ez |
[V:3]Bz ez dz cz |
[V:4]Dz Ez Fz F,z |
[V:1]b8 |
[V:2](3def (3edc (3Bcd (3cBA |
[V:3](3Bcd (3cBA (3GAB (3AGF |
[V:4]B,2 z6 |
[V:1]b2 b2 b2 b2 |
[V:2]G8 |
[V:3]=E6 C2 |
[V:4](3C,=E,F, (3G,A,=B, (3C=EF (3GFE |
[V:1](3_abc' (3bag (3fga (3gfe |
[V:2]_A8- |
[V:3]F8- |
[V:4]F2 z6 |
[V:1](3d4 >>f4 g (3_agf |
[V:2]A8 |
[V:3]F4 B,4 |
[V:4](3B,,D,E, (3F,G,A, (3B,DE (3FED |
[V:1](3g_ab (3agf (3efg (3fed |
[V:2]G8- |
[V:3]E8- |
[V:4]E8 |
[V:1](3ced (3cef (3gfe (3dcB |
[V:2]G8 |
[V:3]E4 C4 |
[V:4]E,6 =E,2 |
[V:1](3AcB (3Aed (3cag (3fc'b |
[V:2][E8-A8] |
[V:3]C8- |
[V:4]F,8- |
[V:1](3ae'c' (3ae'c' (3ac'a (3fge |
[V:2][E8A8] |
[V:3]C8 |
[V:4]F,8- |
[V:1](3dbb (3bag (3fgg (3gfe |
[V:2](3[DB]ff (3fed (3cdd (3dcB |
[V:3](3Ddd (3dcB (3ABB (3BAG |
[V:4]F,8- |
[V:1](3dee (3edc (3BAB (3cBA |
[V:2](3ABB (3BAG F2 F2 |
[V:3](3FGG (3GFE (3DCD (3EDC |
[V:4]F,8- |
[V:1]B2 z6 |
[V:2](3BAB (3cBA (3BAB (3cBA |
[V:3](3DCD (3EDC (3DCD (3EDC |
[V:4]F,8 |
[V:1](3d'c'd' (3e'd'c' (3d'c'd' (3e'd'c' |
[V:2](3Bff (3fff (3fff (3fff |
[V:3]D2 z6 |
[V:4](3B,A,B, (3CB,A, (3B,A,B, (3CB,A, |
[V:1](3d'e'f' (3d'e'f' (3gab (3c'd'e' |
[V:2]f4 g4 |
[V:3]B8 |
[V:4](3B,CD (3B,CD E,4 |
[V:1]f4 c'4 |
[V:2]A2 B4 A2 |
[V:3]c2 B2 G2 FE |
[V:4]E,2 D,2 E,2 F,2 |
[V:1](3bd'c' (3bag (3f=eg (3bge |
[V:2]B8 |
[V:3]D4 =E2 G2 |
[V:4]G,8 |
[V:1](3fgf (3edc (3BAG (3FGE |
[V:2]c8 |
[V:3]F8- |
[V:4]A,8 |
[V:1](3Dff (3fdB (3AFf (3fdB |
[V:2]B4 c>A B2 |
[V:3]F2 F2 F2 F2 |
[V:4]B,2 D2 E2 D2 |
[V:1](3AFf (3fdB (3AFf (3fdB |
[V:2]c>A B2 c>A (3Bdf |
[V:3]F2 F2 F2 F2 |
[V:4]E2 D2 E2 D2 |
[V:1]G2 g2 z2 c2 |
[V:2]g2 E2 z2 B2- |
[V:3]E2 z2 z2 =E2 |
[V:4]E2 z2 z2 =E2 |
[V:1]d2 e4 d2 |
[V:2]B2 A4 B2 |
[V:3]F2 c4 B2 |
[V:4]F2 ^F4 G2 |
[V:1]c3 d/e/ B2 A2 |
[V:2]G3 F/E/ D2 C2 |
[V:3]z2 G2 F2 E2 |
[V:4]E2 E,2 F,2 F,2 |
[V:1]c2 d2 c2 d2 |
[V:2](3AFf (3fdB (3AFf (3fdB |
[V:3]E2 D2 E2 D2 |
[V:4]z8 |
[V:1][ac]z [bB]z [ca]z [bB]z |
[V:2]ez dz ez dz |
[V:3]Fz Fz Fz Fz |
[V:4](3F,,F,F, (3F,D,B,, (3F,,F,F, (3F,D,B,, |
[V:1][g2B2] z2 [E2A2] z2 |
[V:2]c2 z2 [A2E2] z2 |
[V:3]G2 z2 C2 z2 |
[V:4]E,2 z2 F,2 z2 |
[V:1][B2D2] z6 |
[V:2][B2D2] z6 |
[V:3]D2 z6 |
[V:4]B,,2 B,,2 B,,2 B,,2 |
[V:1]z8 |
[V:2]z8 |
[V:3]z8 |
[V:4]B,,2 B,,2 B,,2 B,,2 |
[V:1](3:2:2e4- e/f/g/f e|
[V:2]A8 |
[V:3]C8 |
[V:4]B,,2 B,,2 B,,2 B,,2 |
[V:1]d2 z6 |
[V:2]B2 z6 |
[V:3]D2 z6 |
[V:4]B,,2 B,,2 B,,2 B,,2 |
[V:1](3:2:2c4- c/d/e/d c|
[V:2]E8 |
[V:3]A,8 |
[V:4]B,,2 B,,2 B,,2 B,,2 |
[V:1]B2 z6 |
[V:2]D2 z6 |
[V:3]B,2 z6 |
[V:4]B,,2 B,,2 B,,2 B,,2 |
[V:1](3:2:2G4- G/A/B/A G|
[V:2]_D8 |
[V:3]=E8 |
[V:4]B,,2 B,,2 B,,2 B,,2 |
[V:1]F4 E2 D2 |
[V:2]C4 B,2 A,2 |
[V:3]F2 A,2 G,2 F,2 |
[V:4]A,,4 G,,2 F,,2 |
[V:1]C3 D/E/ B,2 C2 |
[V:2]G,2 >C2 B,2 A,2 |
[V:3]E,4 D,2 E2 |
[V:4]E,,2 E,,2 F,,2 F,,2 |
[V:1]B,2 z6 |
[V:2]B,2 z6 |
[V:3](3DBA (3GFE (3DCB, (3A,G,F, |
[V:4](3B,,B,,B,, (3B,,B,,B,, (3B,,B,,B,, (3B,,B,,B,, |
[V:1]A8 |
[V:2](3:2:2C4- C/D/E/D C|
[V:3]E,8 |
[V:4](3B,,B,,B,, (3B,,B,,B,, (3B,,B,,B,, (3B,,B,,B,, |
[V:1](3Bba (3gfe (3dcB (3AGF |
[V:2]D2 z6 |
[V:3]D,2 z6 |
[V:4](3B,,B,,B,, (3B,,B,,B,, (3B,,B,,B,, (3B,,B,,B,, |
[V:1]E8 |
[V:2](3:2:2A,4- A,/B,/C/B, A,|
[V:3](3:2:2C4- C/D/E/D C|
[V:4](3B,,B,,B,, (3B,,B,,B,, (3B,,B,,B,, (3B,,B,,B,, |
[V:1]D2 z2 B,2 z2 |
[V:2]B,2 z2 D2 z2 |
[V:3]B,2 z2 F,2 z2 |
[V:4]B,,2 z2 B,,2 z2 |
[V:1]B,2 z6 |]
[V:2]D2 z6 |]
[V:3]F,2 z6 |]
[V:4]B,,2 z6 |]

